src/assets/icons/tasks-projects-goals,fancy,triangle-ruler.svg

<svg width="48" height="48" viewBox="0 0 48 48" fill="none" xmlns="http://www.w3.org/2000/svg">
<path opacity="0.4" fill-rule="evenodd" clip-rule="evenodd" d="M37.9393 30.9395L40.0607 33.0608L39.0607 34.0608C38.4749 34.6466 37.5251 34.6466 36.9393 34.0608C36.3536 33.475 36.3536 32.5252 36.9393 31.9395L37.9393 30.9395ZM33.9393 26.9395L36.0607 29.0608L35.0607 30.0608C34.4749 30.6466 33.5251 30.6466 32.9393 30.0608C32.3536 29.475 32.3536 28.5252 32.9393 27.9395L33.9393 26.9395ZM29.9393 22.9395L32.0607 25.0608L31.0607 26.0608C30.4749 26.6466 29.5251 26.6466 28.9393 26.0608C28.3536 25.475 28.3536 24.5252 28.9393 23.9395L29.9393 22.9395ZM25.9393 18.9395L28.0607 21.0608L27.0607 22.0608C26.4749 22.6466 25.5251 22.6466 24.9393 22.0608C24.3536 21.475 24.3536 20.5252 24.9393 19.9395L25.9393 18.9395ZM20.0607 13.0608L19.0607 14.0608C18.4749 14.6466 17.5251 14.6466 16.9393 14.0608C16.3536 13.475 16.3536 12.5252 16.9393 11.9395L17.9393 10.9395L20.0607 13.0608ZM13.9393 6.93945L16.0607 9.06077L15.0607 10.0608C14.4749 10.6466 13.5251 10.6466 12.9393 10.0608C12.3536 9.47499 12.3536 8.52524 12.9393 7.93945L13.9393 6.93945ZM21.9393 14.9395L20.9393 15.9395C20.3536 16.5252 20.3536 17.475 20.9393 18.0608C21.5251 18.6466 22.4749 18.6466 23.0607 18.0608L24.0607 17.0608L21.9393 14.9395Z" fill="black"/>
<path fill-rule="evenodd" clip-rule="evenodd" d="M13.9345 6.94422L12.9393 7.93934C12.3536 8.52513 12.3536 9.47487 12.9393 10.0607C13.5251 10.6464 14.4749 10.6464 15.0607 10.0607L16.0557 9.06563L17.9344 10.9443L16.9393 11.9393C16.3536 12.5251 16.3536 13.4749 16.9393 14.0607C17.5251 14.6464 18.4749 14.6464 19.0607 14.0607L20.0557 13.0656L21.9344 14.9443L20.9393 15.9393C20.3536 16.5251 20.3536 17.4749 20.9393 18.0607C21.5251 18.6464 22.4749 18.6464 23.0607 18.0607L24.0557 17.0656L25.9344 18.9443L24.9393 19.9393C24.3536 20.5251 24.3536 21.4749 24.9393 22.0607C25.5251 22.6464 26.4749 22.6464 27.0607 22.0607L28.0557 21.0656L29.9344 22.9443L28.9393 23.9393C28.3536 24.5251 28.3536 25.4749 28.9393 26.0607C29.5251 26.6464 30.4749 26.6464 31.0607 26.0607L32.0557 25.0656L33.9344 26.9443L32.9393 27.9393C32.3536 28.5251 32.3536 29.4749 32.9393 30.0607C33.5251 30.6464 34.4749 30.6464 35.0607 30.0607L36.0557 29.0656L37.9344 30.9443L36.9393 31.9393C36.3536 32.5251 36.3536 33.4749 36.9393 34.0607C37.5251 34.6464 38.4749 34.6464 39.0607 34.0607L40.0557 33.0656L40.8906 33.9005L41.0169 34.0267C41.6167 34.6257 42.3343 35.3422 42.8339 36.0063C43.2756 36.5936 44.6416 38.5443 43.6425 40.9564C42.6433 43.3685 40.2982 43.7819 39.5705 43.8848C38.7476 44.0012 37.7337 44.0004 36.886 43.9998H36.8859L36.7073 43.9997H9.91624L9.82369 43.9999C9.45528 44.0005 8.8528 44.0016 8.3088 43.9285C7.60296 43.8336 6.44354 43.5551 5.44421 42.5558C4.44488 41.5565 4.16642 40.397 4.07152 39.6912C3.99838 39.1472 3.99947 38.5447 4.00014 38.1763L4.00014 38.1763L4.00025 38.0838V11.2927L4.00017 11.1141C3.99955 10.2664 3.99882 9.25242 4.11519 8.4295C4.21808 7.70184 4.6315 5.35666 7.04362 4.35753C9.45573 3.3584 11.4064 4.72436 11.9936 5.16614C12.6435 5.65499 13.3435 6.35247 13.9345 6.94422ZM31.9465 36.1118L11.8882 16.0535V36.1118H31.9465Z" fill="black"/>
</svg>

<svg xmlns="http://www.w3.org/2000/svg" width="48" height="48" fill="none" viewBox="0 0 48 48">
  <path fill="#000" fill-rule="evenodd" d="M37.94 30.94l2.12 2.12-1 1a1.5 1.5 0 01-2.12-2.12l1-1zm-4-4l2.12 2.12-1 1a1.5 1.5 0 01-2.12-2.12l1-1zm-4-4l2.12 2.12-1 1a1.5 1.5 0 01-2.12-2.12l1-1zm-4-4l2.12 2.12-1 1a1.5 1.5 0 01-2.12-2.12l1-1zm-5.88-5.88l-1 1a1.5 1.5 0 01-2.12-2.12l1-1 2.12 2.12zm-6.12-6.12l2.12 2.12-1 1a1.5 1.5 0 01-2.12-2.12l1-1zm8 8l-1 1a1.5 1.5 0 002.12 2.12l1-1-2.12-2.12z" clip-rule="evenodd" opacity=".4"/>
  <path fill="#000" fill-rule="evenodd" d="M13.934 6.944l-.995.995a1.5 1.5 0 002.122 2.122l.995-.995 1.878 1.878-.995.995a1.5 1.5 0 002.122 2.122l.995-.995 1.878 1.878-.995.995a1.5 1.5 0 002.122 2.122l.995-.995 1.878 1.878-.995.995a1.5 1.5 0 002.122 2.122l.995-.995 1.878 1.878-.995.995a1.5 1.5 0 002.122 2.122l.995-.995 1.878 1.878-.995.995a1.5 1.5 0 002.122 2.122l.995-.995 1.878 1.878-.995.995a1.5 1.5 0 002.122 2.122l.995-.995.835.834.126.127c.6.599 1.317 1.315 1.817 1.98.442.587 1.808 2.537.808 4.95-.999 2.411-3.344 2.825-4.072 2.928-.822.116-1.836.115-2.684.115H9.824c-.369 0-.971.002-1.515-.072-.706-.094-1.865-.373-2.865-1.372-1-1-1.278-2.159-1.372-2.865-.074-.544-.073-1.146-.072-1.515V11.114c0-.848-.001-1.862.115-2.684.103-.728.516-3.073 2.929-4.072 2.412-1 4.362.366 4.95.808.65.489 1.35 1.186 1.94 1.778zm18.013 29.168L11.887 16.053v20.059h20.059z" clip-rule="evenodd"/>
</svg>
